images/UpgradeGraphics/BCHUpgrades_Icons/19.svg

<svg xmlns="http://www.w3.org/2000/svg" fill="none" viewBox="-18 46.96 690.67 749.01" xmlns:v="https://vecta.io/nano"><path transform="matrix(.89668 -.44268 .89668 .44268 212 595.359)" fill="url(#A)" d="M0 0h129.304v129.304H0z"/><path fill="#a2ffe5" d="M257.156 595.921l70.706-34.907 70.584 34.846-70.706 34.907z" style="mix-blend-mode:screen"/><path transform="matrix(.89668 -.44268 .89668 .44268 236.919 599.549)" stroke="#fff" stroke-width="10" d="M8.967 0h91.706v91.571H8.967z"/><path transform="matrix(.89668 .44268 0 1 212 595.359)" fill="url(#B)" d="M0 0h129.304v24.412H0z"/><path transform="matrix(.89668 -.44268 0 1 327.836 652.599)" fill="url(#C)" d="M0 0h129.304v24.506H0z"/><path fill-rule="evenodd" d="M280.476 90.762c1.076-41.336 40.644-56.028 89.298-32.728 49.202 23.561 89.111 77.076 89.32 119.681 5.046 1.552 10.237 3.587 15.535 6.125 49.415 23.663 89.474 82.045 89.474 130.398s-40.059 68.369-89.474 44.705a132.8 132.8 0 0 1-7.248-3.754 90.52 90.52 0 0 1-6.292-2.731l-204.206-97.79c-1.728-.828-3.443-1.712-5.142-2.651-1.924-.795-3.864-1.66-5.818-2.596-49.331-23.624-89.321-83.578-89.321-133.912s39.99-71.986 89.321-48.363c12.25 5.866 23.924 13.973 34.553 23.616z" fill="url(#D)"/><rect width="390.703" height="379.551" rx="37" transform="matrix(.89668 -.44268 .89668 .44268 -18 627.957)" fill="#13b3d3" style="mix-blend-mode:screen"/><path fill-rule="evenodd" d="M238.921 117.446c1.076-41.336 40.645-56.028 89.299-32.728 49.201 23.561 89.111 77.076 89.32 119.681 5.045 1.552 10.236 3.587 15.535 6.125 49.415 23.664 89.473 82.045 89.473 130.398s-40.058 68.369-89.473 44.705c-2.44-1.169-4.858-2.422-7.249-3.754a90.29 90.29 0 0 1-6.291-2.731l-204.207-97.79c-1.728-.828-3.443-1.712-5.142-2.651a116.92 116.92 0 0 1-5.818-2.596c-49.331-23.623-89.321-83.578-89.321-133.911s39.99-71.987 89.321-48.364c12.25 5.866 23.924 13.973 34.553 23.617z" fill="url(#E)"/><g style="mix-blend-mode:screen"><use href="#H" fill="#fff"/><use href="#H" stroke="#13b3d3" stroke-width="5"/></g><g fill="#fff"><use href="#I" style="mix-blend-mode:screen"/><use href="#I" x="136.18" y="64.749" style="mix-blend-mode:screen"/><use href="#J" style="mix-blend-mode:screen"/><use href="#J" style="mix-blend-mode:screen"/><path d="M354.766 260.903l5.627 3.004v86.915l-5.627-3.005v-86.914zm-58.524-98.878l5.627 3.005v157.833l-5.627-3.005V162.025z" style="mix-blend-mode:screen"/></g><g style="mix-blend-mode:screen"><use href="#K" fill="#fff"/><use href="#K" stroke="#13b3d3" stroke-width="5"/></g><path d="M286.961 522.678l-21.218-12.25 9.639-5.565c2.304-1.33 4.779-2.246 7.426-2.748 2.627-.513 5.224-.6 7.79-.262s4.931 1.132 7.093 2.38c2.142 1.237 3.516 2.602 4.122 4.095.586 1.482.445 2.987-.424 4.515-.889 1.517-2.486 2.94-4.789 4.27l-9.639 5.565zm.879-5.163l4.486-2.59c1.414-.816 2.374-1.674 2.879-2.572.505-.922.546-1.832.121-2.73-.404-.91-1.273-1.75-2.606-2.52a12.05 12.05 0 0 0-4.365-1.505c-1.556-.245-3.122-.216-4.698.087-1.576.28-3.072.829-4.486 1.645l-4.486 2.59 13.155 7.595zm21.078-7.514l-11.761-17.71 4.85-2.8 30.705 6.772-5.153 2.975-26.491-6.335 1.939-1.12 10.943 15.313-5.032 2.905zm.182-5.355l-2.425-2.905 10.912-6.3 5.062 1.382-13.549 7.823zm23.706-8.437l-11.761-17.71 4.85-2.8 30.705 6.773-5.153 2.975-26.492-6.335 1.94-1.12 10.942 15.312-5.031 2.905zm.182-5.355l-2.425-2.905 10.912-6.3 5.061 1.383-13.548 7.822zm36.035-15.135c-1.637.945-3.425 1.674-5.365 2.188-1.94.49-3.92.746-5.941.77a25.51 25.51 0 0 1-5.911-.613c-1.899-.443-3.647-1.126-5.243-2.047s-2.779-1.931-3.547-3.028c-.748-1.108-1.101-2.246-1.061-3.412.061-1.179.526-2.322 1.395-3.43.848-1.12 2.101-2.159 3.758-3.115 1.839-1.062 3.819-1.832 5.941-2.31a22.64 22.64 0 0 1 6.547-.56l-.242 3.5c-1.556-.059-2.981.052-4.274.332-1.314.269-2.496.706-3.546 1.313-.991.571-1.738 1.19-2.243 1.855s-.758 1.347-.758 2.047.242 1.389.727 2.065c.505.665 1.263 1.289 2.274 1.873s2.091 1.021 3.243 1.312c1.172.28 2.364.42 3.576.42s2.395-.146 3.547-.437 2.223-.724 3.213-1.295c1.051-.607 1.818-1.284 2.303-2.03.465-.759.637-1.593.516-2.503l6.062-.14c.222 1.295-.091 2.561-.94 3.798-.828 1.225-2.172 2.374-4.031 3.447z" fill="#fff"/><path d="M350.824 362.382l230.717-140.51-191.326 369.489-68.653 33.827 29.262-262.806z" fill="url(#F)" style="mix-blend-mode:screen"/><path d="M359 329.5L54.998 212l191.326 369.49 68.653 33.826L359 329.5z" fill="url(#G)" style="mix-blend-mode:screen"/><g style="mix-blend-mode:screen"><use href="#L" fill="#fff"/><use href="#L" stroke="#13b3d3" stroke-width="5"/></g><defs><linearGradient id="A" x1="41.613" y1="6.13" x2="88.902" y2="142.199" href="#M"><stop stop-color="#13b3d3"/><stop offset="1" stop-color="#13edb1"/></linearGradient><linearGradient id="B" x1="41.613" y1="1.157" x2="43.494" y2="29.826" href="#M"><stop stop-color="#13b3d3"/><stop offset="1" stop-color="#13edb1"/></linearGradient><linearGradient id="C" x1="41.613" y1="1.162" x2="43.509" y2="29.94" href="#M"><stop stop-color="#13b3d3"/><stop offset="1" stop-color="#13edb1"/></linearGradient><linearGradient id="D" x1="455.16" y1="98.923" x2="243.165" y2="138.284" href="#M"><stop stop-color="#13edb1" stop-opacity=".3"/><stop offset="1" stop-color="#13b3d3" stop-opacity=".52"/></linearGradient><linearGradient id="E" x1="318.797" y1="80.205" x2="221.139" y2="284.136" href="#M"><stop stop-color="#13edb1"/><stop offset="1" stop-color="#13b3d3"/></linearGradient><linearGradient id="F" x1="447.747" y1="343.969" x2="501.662" y2="581.108" href="#M"><stop offset=".148" stop-color="#93e0cb" stop-opacity="0"/><stop offset=".693" stop-color="#7fe2c7" stop-opacity=".157"/><stop offset="1" stop-color="#13edb1" stop-opacity=".76"/></linearGradient><linearGradient id="G" x1="188.792" y1="334.098" x2="134.876" y2="571.236" href="#M"><stop offset=".148" stop-color="#93e0cb" stop-opacity="0"/><stop offset=".693" stop-color="#7fe2c7" stop-opacity=".157"/><stop offset="1" stop-color="#13edb1" stop-opacity=".76"/></linearGradient><path id="H" d="M324.835 148.358c0 14.863-11.323 21.118-25.573 13.509s-25.572-25.954-25.572-40.817 11.323-21.117 25.572-13.509 25.573 25.954 25.573 40.817z"/><path id="I" d="M218.586 195.113l38.265 20.431v5.507l-38.265-20.431v-5.507z"/><path id="J" d="M251.227 217.789l5.627 3.005v80.649l-5.627-3.004v-80.65z"/><path id="K" d="M219.046 192.073c0 14.863-11.323 21.117-25.573 13.509s-25.572-25.954-25.572-40.818 11.323-21.117 25.572-13.509 25.573 25.954 25.573 40.818z"/><path id="L" d="M436.069 310.061c0 14.864-11.323 21.118-25.572 13.509s-25.573-25.954-25.573-40.817 11.323-21.117 25.573-13.509 25.572 25.954 25.572 40.817z"/><linearGradient id="M" gradientUnits="userSpaceOnUse"/></defs></svg>

<svg xmlns="http://www.w3.org/2000/svg" fill="none" viewBox="-18 46.96 690.67 749.01">
<g id="Group 121">
<rect id="Rectangle 135" width="129.304" height="129.304" transform="matrix(0.89668 -0.44268 0.89668 0.44268 212 595.359)" fill="url(#paint0_linear_153_40)"/>
<g id="Rectangle 139" style="mix-blend-mode:screen">
<rect width="78.8528" height="78.7171" transform="matrix(0.89668 -0.44268 0.89668 0.44268 257.156 595.921)" fill="#A2FFE5"/>
</g>
<rect id="Rectangle 138" x="8.9668" width="91.7065" height="91.5707" transform="matrix(0.89668 -0.44268 0.89668 0.44268 236.919 599.549)" stroke="white" stroke-width="10"/>
<rect id="Rectangle 136" width="129.304" height="24.412" transform="matrix(0.89668 0.44268 0 1 212 595.359)" fill="url(#paint1_linear_153_40)"/>
<rect id="Rectangle 137" width="129.304" height="24.5064" transform="matrix(0.89668 -0.44268 0 1 327.836 652.599)" fill="url(#paint2_linear_153_40)"/>
<g id="Group 117">
<g id="Frame 1">
<path id="Union" fill-rule="evenodd" clip-rule="evenodd" d="M280.476 90.7616C281.552 49.4259 321.12 34.734 369.774 58.0334C418.976 81.5949 458.885 135.109 459.094 177.714C464.14 179.266 469.331 181.301 474.629 183.839C524.044 207.502 564.103 265.884 564.103 314.237C564.103 362.591 524.044 382.606 474.629 358.942C472.189 357.773 469.772 356.52 467.381 355.188C465.306 354.381 463.208 353.472 461.089 352.457L256.883 254.667C255.155 253.839 253.44 252.955 251.741 252.016C249.817 251.221 247.877 250.356 245.923 249.42C196.592 225.796 156.602 165.842 156.602 115.508C156.602 65.1747 196.592 43.5217 245.923 67.1452C258.173 73.0115 269.847 81.1182 280.476 90.7616Z" fill="url(#paint3_linear_153_40)"/>
<g id="Rectangle 142" style="mix-blend-mode:screen">
<rect width="390.703" height="379.551" rx="37" transform="matrix(0.89668 -0.44268 0.89668 0.44268 -18 627.957)" fill="#13B3D3"/>
</g>
<path id="Union_2" fill-rule="evenodd" clip-rule="evenodd" d="M238.921 117.446C239.997 76.11 279.566 61.4181 328.22 84.7175C377.421 108.279 417.331 161.793 417.54 204.398C422.585 205.95 427.776 207.985 433.075 210.523C482.49 234.187 522.548 292.568 522.548 340.921C522.548 389.275 482.49 409.29 433.075 385.626C430.635 384.457 428.217 383.204 425.826 381.872C423.751 381.065 421.653 380.156 419.535 379.141L215.328 281.351C213.6 280.523 211.885 279.639 210.186 278.7C208.263 277.905 206.323 277.04 204.368 276.104C155.037 252.481 115.047 192.526 115.047 142.193C115.047 91.8588 155.037 70.2058 204.368 93.8293C216.618 99.6956 228.292 107.802 238.921 117.446Z" fill="url(#paint4_linear_153_40)"/>
<g id="Ellipse 25" style="mix-blend-mode:screen">
<path d="M324.835 148.358C324.835 163.221 313.512 169.476 299.262 161.867C285.013 154.259 273.69 135.913 273.69 121.05C273.69 106.187 285.013 99.9328 299.262 107.541C313.512 115.149 324.835 133.495 324.835 148.358Z" fill="white"/>
<path d="M324.835 148.358C324.835 163.221 313.512 169.476 299.262 161.867C285.013 154.259 273.69 135.913 273.69 121.05C273.69 106.187 285.013 99.9328 299.262 107.541C313.512 115.149 324.835 133.495 324.835 148.358Z" stroke="#13B3D3" stroke-width="5"/>
</g>
<g id="Union_3" style="mix-blend-mode:screen">
<path d="M218.586 195.113L256.851 215.544V221.051L218.586 200.62V195.113Z" fill="white"/>
</g>
<g id="Union_4" style="mix-blend-mode:screen">
<path d="M354.766 259.862L393.031 280.293V285.8L354.766 265.369V259.862Z" fill="white"/>
</g>
<g id="Union_5" style="mix-blend-mode:screen">
<path d="M251.227 217.789L256.854 220.794V301.443L251.227 298.439V217.789Z" fill="white"/>
</g>
<g id="Union_6" style="mix-blend-mode:screen">
<path d="M251.227 217.789L256.854 220.794V301.443L251.227 298.439V217.789Z" fill="white"/>
</g>
<g id="Union_7" style="mix-blend-mode:screen">
<path d="M354.766 260.903L360.393 263.907V350.822L354.766 347.817V260.903Z" fill="white"/>
</g>
<g id="Union_8" style="mix-blend-mode:screen">
<path d="M296.242 162.025L301.869 165.03V322.863L296.242 319.858V162.025Z" fill="white"/>
</g>
<g id="Ellipse 24" style="mix-blend-mode:screen">
<path d="M219.046 192.073C219.046 206.936 207.723 213.19 193.473 205.582C179.224 197.973 167.901 179.628 167.901 164.764C167.901 149.901 179.224 143.647 193.473 151.255C207.723 158.864 219.046 177.209 219.046 192.073Z" fill="white"/>
<path d="M219.046 192.073C219.046 206.936 207.723 213.19 193.473 205.582C179.224 197.973 167.901 179.628 167.901 164.764C167.901 149.901 179.224 143.647 193.473 151.255C207.723 158.864 219.046 177.209 219.046 192.073Z" stroke="#13B3D3" stroke-width="5"/>
</g>
<g id="DAAC" filter="url(#filter0_d_153_40)">
<path d="M286.961 522.678L265.743 510.428L275.382 504.863C277.686 503.533 280.161 502.617 282.808 502.115C285.435 501.602 288.032 501.515 290.598 501.853C293.164 502.191 295.529 502.985 297.691 504.233C299.833 505.47 301.207 506.835 301.813 508.328C302.399 509.81 302.258 511.315 301.389 512.843C300.5 514.36 298.903 515.783 296.6 517.113L286.961 522.678ZM287.84 517.515L292.326 514.925C293.74 514.109 294.7 513.251 295.205 512.353C295.71 511.431 295.751 510.521 295.326 509.623C294.922 508.713 294.053 507.873 292.72 507.103C291.366 506.321 289.911 505.82 288.355 505.598C286.799 505.353 285.233 505.382 283.657 505.685C282.081 505.965 280.585 506.514 279.171 507.33L274.685 509.92L287.84 517.515ZM308.918 510.001L297.157 492.291L302.007 489.491L332.712 496.263L327.559 499.238L301.068 492.903L303.007 491.783L313.95 507.096L308.918 510.001ZM309.1 504.646L306.675 501.741L317.587 495.441L322.649 496.823L309.1 504.646ZM332.806 496.209L321.045 478.499L325.895 475.699L356.6 482.472L351.447 485.447L324.955 479.112L326.895 477.992L337.837 493.304L332.806 496.209ZM332.988 490.854L330.563 487.949L341.475 481.649L346.536 483.032L332.988 490.854ZM369.023 475.719C367.386 476.664 365.598 477.393 363.658 477.907C361.718 478.397 359.738 478.653 357.717 478.677C355.696 478.7 353.726 478.496 351.806 478.064C349.907 477.621 348.159 476.938 346.563 476.017C344.966 475.095 343.784 474.086 343.016 472.989C342.268 471.881 341.915 470.743 341.955 469.577C342.016 468.398 342.481 467.255 343.35 466.147C344.198 465.027 345.451 463.988 347.108 463.032C348.947 461.97 350.927 461.2 353.049 460.722C355.171 460.22 357.353 460.033 359.596 460.162L359.354 463.662C357.798 463.603 356.373 463.714 355.08 463.994C353.766 464.263 352.584 464.7 351.534 465.307C350.543 465.878 349.796 466.497 349.291 467.162C348.785 467.827 348.533 468.509 348.533 469.209C348.533 469.909 348.775 470.598 349.26 471.274C349.765 471.939 350.523 472.563 351.534 473.147C352.544 473.73 353.625 474.168 354.777 474.459C355.949 474.739 357.141 474.879 358.353 474.879C359.566 474.879 360.748 474.733 361.9 474.442C363.052 474.15 364.123 473.718 365.113 473.147C366.164 472.54 366.931 471.863 367.416 471.117C367.881 470.358 368.053 469.524 367.932 468.614L373.994 468.474C374.216 469.769 373.903 471.035 373.054 472.272C372.226 473.497 370.882 474.646 369.023 475.719Z" fill="white"/>
</g>
<g id="Rectangle 151" style="mix-blend-mode:screen">
<path d="M350.824 362.382L581.541 221.872L390.215 591.361L321.562 625.188L350.824 362.382Z" fill="url(#paint5_linear_153_40)"/>
</g>
<g id="Rectangle 266" style="mix-blend-mode:screen">
<path d="M359 329.5L54.9982 212L246.324 581.49L314.977 615.316L359 329.5Z" fill="url(#paint6_linear_153_40)"/>
</g>
</g>
</g>
<g id="Ellipse 26" style="mix-blend-mode:screen">
<path d="M436.069 310.061C436.069 324.925 424.746 331.179 410.497 323.57C396.247 315.962 384.924 297.616 384.924 282.753C384.924 267.89 396.247 261.636 410.497 269.244C424.746 276.852 436.069 295.198 436.069 310.061Z" fill="white"/>
<path d="M436.069 310.061C436.069 324.925 424.746 331.179 410.497 323.57C396.247 315.962 384.924 297.616 384.924 282.753C384.924 267.89 396.247 261.636 410.497 269.244C424.746 276.852 436.069 295.198 436.069 310.061Z" stroke="#13B3D3" stroke-width="5"/>
</g>
</g>
<defs>
<filter id="filter0_d_153_40" x="261.383" y="457.992" width="120.398" height="72.896" filterUnits="userSpaceOnUse" color-interpolation-filters="sRGB">
<feFlood flood-opacity="0" result="BackgroundImageFix"/>
<feColorMatrix in="SourceAlpha" type="matrix" values="0 0 0 0 0 0 0 0 0 0 0 0 0 0 0 0 0 0 127 0" result="hardAlpha"/>
<feOffset dy="4"/>
<feGaussianBlur stdDeviation="2"/>
<feComposite in2="hardAlpha" operator="out"/>
<feColorMatrix type="matrix" values="0 0 0 0 0 0 0 0 0 0 0 0 0 0 0 0 0 0 0.25 0"/>
<feBlend mode="normal" in2="BackgroundImageFix" result="effect1_dropShadow_153_40"/>
<feBlend mode="normal" in="SourceGraphic" in2="effect1_dropShadow_153_40" result="shape"/>
</filter>
<linearGradient id="paint0_linear_153_40" x1="41.6134" y1="6.13009" x2="88.9015" y2="142.199" gradientUnits="userSpaceOnUse">
<stop stop-color="#13B3D3"/>
<stop offset="1" stop-color="#13EDB1"/>
</linearGradient>
<linearGradient id="paint1_linear_153_40" x1="41.6134" y1="1.15734" x2="43.4944" y2="29.8259" gradientUnits="userSpaceOnUse">
<stop stop-color="#13B3D3"/>
<stop offset="1" stop-color="#13EDB1"/>
</linearGradient>
<linearGradient id="paint2_linear_153_40" x1="41.6134" y1="1.16181" x2="43.5089" y2="29.9402" gradientUnits="userSpaceOnUse">
<stop stop-color="#13B3D3"/>
<stop offset="1" stop-color="#13EDB1"/>
</linearGradient>
<linearGradient id="paint3_linear_153_40" x1="455.16" y1="98.9229" x2="243.165" y2="138.284" gradientUnits="userSpaceOnUse">
<stop stop-color="#13EDB1" stop-opacity="0.3"/>
<stop offset="1" stop-color="#13B3D3" stop-opacity="0.52"/>
</linearGradient>
<linearGradient id="paint4_linear_153_40" x1="318.797" y1="80.2054" x2="221.139" y2="284.136" gradientUnits="userSpaceOnUse">
<stop stop-color="#13EDB1"/>
<stop offset="1" stop-color="#13B3D3"/>
</linearGradient>
<linearGradient id="paint5_linear_153_40" x1="447.747" y1="343.969" x2="501.662" y2="581.108" gradientUnits="userSpaceOnUse">
<stop offset="0.147966" stop-color="#93E0CB" stop-opacity="0"/>
<stop offset="0.693354" stop-color="#7FE2C7" stop-opacity="0.156976"/>
<stop offset="1" stop-color="#13EDB1" stop-opacity="0.76"/>
</linearGradient>
<linearGradient id="paint6_linear_153_40" x1="188.792" y1="334.098" x2="134.876" y2="571.236" gradientUnits="userSpaceOnUse">
<stop offset="0.147966" stop-color="#93E0CB" stop-opacity="0"/>
<stop offset="0.693354" stop-color="#7FE2C7" stop-opacity="0.156976"/>
<stop offset="1" stop-color="#13EDB1" stop-opacity="0.76"/>
</linearGradient>
</defs>
</svg>
